X:1
T:Freude, schöner Götterfunken
T:(aus der 9. Symphonie)
T:Freude, schöner Götterfunken
T:(aus der 9. Symphonie)
T:Ludwig van Beethoven (1770-1827)
T:Friedrich Schiller (1759-1805)
C:Ludwig van Beethoven (1770-1827)
Z:Friedrich Schiller (1759-1805)
%%score 1 { 2 | 3 }
L:1/8
M:4/4
K:D
V:1 treble nm="Voice"
V:2 treble nm="Piano"
V:3 bass 
V:1
"D" F2 F2 G2 A2 |"A" A2 G2 F2 E2 |"D" D2 D2 E2 F2 |"D/A" F3 E"A" E4 |"D" F2 F2 G2 A2 | %5
w: 1.Freu- de, schö- ner|Göt- ter- fun- ken,|Toch- ter aus E-|ly- si- um,|wir be- tre- ten|
w: 2.Wem der gro- ße|Wurf ge- lun- gen,|ei- nes Freun- des|Freund zu sein,|wer ein hol- des|
"A" A2 G2 F2 E2 |"Bm" D2 D2"Em" E2 F2 |"A7" E3 D"D" D4 |"A" E2 E2"D" F2 D2 |"A" E2 FG"D" F2 D2 | %10
w: feu- er- trun- ken,|Himm- li- sche, dein|Hei- lig- tum!|Dei- ne Zau- ber|bin- den * wie- der,|
w: Weib er- run- gen,|mi- sche sei- nen|Ju- bel ein!|Ja! Wer auch nur|ei- ne * See- le|
"A" E2 FG"F#7/A#" F2 E2 |"Bm7" D2"E7/G#" E2"A" A,2 (F2 |"D" F2) F2 G2 A2 |"A" A2 G2 F2 E2 | %14
w: was die _ Mo- de|streng ge- teilt. Al-|_ le Men- schen|wer- den Brü- der,|
w: sein nennt _ auf dem|Er- den- rund! Und|_ wer’s nie ge-|konnt, der steh- le|
"Bm" D2 D2"Em" E2 F2 |"A7" E3 D"D" D4 |] %16
w: wo dein sanf- ter|Flü- gel weilt.|
w: wei- nend sich aus|die- sem Bund!|
V:2
 [DF]2 [DF]2 [EG]2 [FA]2 | [FA]2 [EG]2 [DF]2 [A,E]2 | [D,F,A,D]2 [F,D]2 [A,E]2 [F,A,DF]2 | %3
 [F,A,DF]3 [CE] [E,A,CE]4 | [DF]2 [DF]2 [EG]2 [FA]2 | [FA]2 [EG]2 [DF]2 [A,E]2 | %6
 [D,F,A,D]2 [F,D]2 [A,E]2 [F,A,DF]2 | [E,A,CE]3 [F,D] [D,F,A,D]4 | [CE]2 [CE]2 [DF]2 [F,D]2 | %9
 [CE]2 [DF][EG] [DF]2 [F,D]2 | [CE]2 [DF][EG] [CF]2 [CE]2 | [B,D]2 [^G,E]2 [C,A,]2 [DF]2- | %12
 [DF]2 [DF]2 [EG]2 [FA]2 | [FA]2 [EG]2 [DF]2 [A,E]2 | [D,F,A,D]2 [F,D]2 [A,E]2 [F,A,DF]2 | %15
 [E,A,CE]3 [F,D] [D,F,A,D]4 |] %16
V:3
 D,3 F,, D,3 D,, | A,,3 A,,, A,,3 A,,, | [D,,D,]2 z2 z2 [D,,D,]2 | [A,,A,]2 z2 [A,,,A,,]4 | %4
 D,3 D,, D,3 D,, | A,,3 A,,, A,,3 A,,, | [D,,D,]2 z2 z2 [D,,D,]2 | [A,,,A,,]2 z2 [D,,D,]4 | %8
 A,,,3 A,,, A,,2 D,,2 | A,,,3 A,,, A,,2 D,,2 | A,,,3 A,, ^A,,2 F,,2 | B,,2 E,,2 A,,2 A,,2 | %12
 D,3 D,, D,3 D,, | A,,3 A,,, A,,3 A,,, | [D,,D,]2 z2 z2 [D,,D,]2 | [A,,,A,,]2 z2 [D,,D,]4 |] %16

